storage/app/icons/phosphoricons/light/faders-light.svg

<svg xmlns="http://www.w3.org/2000/svg" fill="currentColor" viewBox="0 0 256 256"><path d="M134 120v96a6 6 0 0 1-12 0v-96a6 6 0 0 1 12 0m66 74a6 6 0 0 0-6 6v16a6 6 0 0 0 12 0v-16a6 6 0 0 0-6-6m24-32h-18V40a6 6 0 0 0-12 0v122h-18a6 6 0 0 0 0 12h48a6 6 0 0 0 0-12m-168 0a6 6 0 0 0-6 6v48a6 6 0 0 0 12 0v-48a6 6 0 0 0-6-6m24-32H62V40a6 6 0 0 0-12 0v90H32a6 6 0 0 0 0 12h48a6 6 0 0 0 0-12m72-48h-18V40a6 6 0 0 0-12 0v42h-18a6 6 0 0 0 0 12h48a6 6 0 0 0 0-12"/></svg>

<svg xmlns="http://www.w3.org/2000/svg" viewBox="0 0 256 256" fill="currentColor"><path d="M134,120v96a6,6,0,0,1-12,0V120a6,6,0,0,1,12,0Zm66,74a6,6,0,0,0-6,6v16a6,6,0,0,0,12,0V200A6,6,0,0,0,200,194Zm24-32H206V40a6,6,0,0,0-12,0V162H176a6,6,0,0,0,0,12h48a6,6,0,0,0,0-12ZM56,162a6,6,0,0,0-6,6v48a6,6,0,0,0,12,0V168A6,6,0,0,0,56,162Zm24-32H62V40a6,6,0,0,0-12,0v90H32a6,6,0,0,0,0,12H80a6,6,0,0,0,0-12Zm72-48H134V40a6,6,0,0,0-12,0V82H104a6,6,0,0,0,0,12h48a6,6,0,0,0,0-12Z"/></svg>
